Newaita-dark/actions/16/im-user.svg

<svg height="16" viewBox="0 0 16 16" width="16" xmlns="http://www.w3.org/2000/svg"><g fill="#e0e0e0"><path d="m7.9375 1.449219c-1.832031 0-3.308594 1.472656-3.308594 3.304687 0 1.835938 1.476563 3.308594 3.308594 3.308594s3.308594-1.472656 3.308594-3.308594c0-1.832031-1.476563-3.304687-3.308594-3.304687zm0 1.320312c1.101562 0 1.984375.886719 1.984375 1.984375 0 1.101563-.882813 1.984375-1.984375 1.984375-1.097656 0-1.984375-.882812-1.984375-1.984375 0-1.097656.886719-1.984375 1.984375-1.984375zm0 0"/><path d="m10.253906 8.398438c-.085937 0-.167968.015624-.246094.046874-1.539062.617188-2.597656.617188-4.140624 0-.140626-.058593-.296876-.0625-.445313-.015624-.441406.140624-1.238281.308593-1.972656.703124-.730469.390626-1.460938 1.148438-1.460938 2.238282v.992187h-.003906v.992188c0 .734375.589844 1.324219 1.324219 1.324219h9.261718c.730469 0 1.320313-.589844 1.320313-1.324219v-1.984375c0-1.089844-.730469-1.847656-1.464844-2.242188-.734375-.394531-1.53125-.566406-1.980469-.703125-.0625-.019531-.128906-.027343-.191406-.027343zm.015625 1.347656c.507813.148437 1.085938.300781 1.53125.539062.507813.273438.769531.523438.769531 1.085938v1.324218c0 .363282-.296874.660157-.664062.660157h-7.9375c-.367188 0-.660156-.296875-.660156-.660157v-.332031h-.003906v-.992187c0-.5625.261718-.808594.769531-1.078125.445312-.242188 1.023437-.394531 1.53125-.546875 1.601562.589844 3.066406.589844 4.664062 0zm0 0"/></g></svg>

<svg xmlns="http://www.w3.org/2000/svg" xmlns:xlink="http://www.w3.org/1999/xlink" width="16px" height="16px" viewBox="0 0 16 16" version="1.1">
<g id="surface1">
     <defs>
  <style id="current-color-scheme" type="text/css">
   .ColorScheme-Text { color:#eeeeee; } .ColorScheme-Highlight { color:#424242; }
  </style>
 </defs>
<path style="fill:currentColor" class="ColorScheme-Text" d="M 7.9375 1.449219 C 6.105469 1.449219 4.628906 2.921875 4.628906 4.753906 C 4.628906 6.589844 6.105469 8.0625 7.9375 8.0625 C 9.769531 8.0625 11.246094 6.589844 11.246094 4.753906 C 11.246094 2.921875 9.769531 1.449219 7.9375 1.449219 Z M 7.9375 2.769531 C 9.039062 2.769531 9.921875 3.65625 9.921875 4.753906 C 9.921875 5.855469 9.039062 6.738281 7.9375 6.738281 C 6.839844 6.738281 5.953125 5.855469 5.953125 4.753906 C 5.953125 3.65625 6.839844 2.769531 7.9375 2.769531 Z M 7.9375 2.769531 "/>
     <defs>
  <style id="current-color-scheme" type="text/css">
   .ColorScheme-Text { color:#eeeeee; } .ColorScheme-Highlight { color:#424242; }
  </style>
 </defs>
<path style="fill:currentColor" class="ColorScheme-Text" d="M 10.253906 8.398438 C 10.167969 8.398438 10.085938 8.414062 10.007812 8.445312 C 8.46875 9.0625 7.410156 9.0625 5.867188 8.445312 C 5.726562 8.386719 5.570312 8.382812 5.421875 8.429688 C 4.980469 8.570312 4.183594 8.738281 3.449219 9.132812 C 2.71875 9.523438 1.988281 10.28125 1.988281 11.371094 L 1.988281 12.363281 L 1.984375 12.363281 L 1.984375 13.355469 C 1.984375 14.089844 2.574219 14.679688 3.308594 14.679688 L 12.570312 14.679688 C 13.300781 14.679688 13.890625 14.089844 13.890625 13.355469 L 13.890625 11.371094 C 13.890625 10.28125 13.160156 9.523438 12.425781 9.128906 C 11.691406 8.734375 10.894531 8.5625 10.445312 8.425781 C 10.382812 8.40625 10.316406 8.398438 10.253906 8.398438 Z M 10.269531 9.746094 C 10.777344 9.894531 11.355469 10.046875 11.800781 10.285156 C 12.308594 10.558594 12.570312 10.808594 12.570312 11.371094 L 12.570312 12.695312 C 12.570312 13.058594 12.273438 13.355469 11.90625 13.355469 L 3.96875 13.355469 C 3.601562 13.355469 3.308594 13.058594 3.308594 12.695312 L 3.308594 12.363281 L 3.304688 12.363281 L 3.304688 11.371094 C 3.304688 10.808594 3.566406 10.5625 4.074219 10.292969 C 4.519531 10.050781 5.097656 9.898438 5.605469 9.746094 C 7.207031 10.335938 8.671875 10.335938 10.269531 9.746094 Z M 10.269531 9.746094 "/>
</g>
</svg>
